humanity-icon-theme/Humanity/categories/24/applications-games.svg

<?xml version="1.0" encoding="UTF-8" standalone="no"?>
<!-- Created with Inkscape (http://www.inkscape.org/) -->

<svg
   xmlns:svg="http://www.w3.org/2000/svg"
   xmlns="http://www.w3.org/2000/svg"
   xmlns:xlink="http://www.w3.org/1999/xlink"
   version="1.0"
   width="24"
   height="24"
   id="svg11300">
  <defs
     id="defs3">
    <linearGradient
       id="linearGradient3702">
      <stop
         id="stop3704"
         style="stop-color:black;stop-opacity:0"
         offset="0" />
      <stop
         id="stop3710"
         style="stop-color:black;stop-opacity:1"
         offset="0.5" />
      <stop
         id="stop3706"
         style="stop-color:black;stop-opacity:0"
         offset="1" />
    </linearGradient>
    <linearGradient
       id="linearGradient3688">
      <stop
         id="stop3690"
         style="stop-color:black;stop-opacity:1"
         offset="0" />
      <stop
         id="stop3692"
         style="stop-color:black;stop-opacity:0"
         offset="1" />
    </linearGradient>
    <linearGradient
       id="linearGradient5460">
      <stop
         id="stop5462"
         style="stop-color:#e5e5e5;stop-opacity:1"
         offset="0" />
      <stop
         id="stop5464"
         style="stop-color:#c8c8c8;stop-opacity:1"
         offset="1" />
    </linearGradient>
    <linearGradient
       id="linearGradient2296">
      <stop
         id="stop2298"
         style="stop-color:white;stop-opacity:1"
         offset="0" />
      <stop
         id="stop2300"
         style="stop-color:white;stop-opacity:0"
         offset="1" />
    </linearGradient>
    <linearGradient
       id="linearGradient3116">
      <stop
         id="stop3118"
         style="stop-color:#e5e5e5;stop-opacity:1"
         offset="0" />
      <stop
         id="stop3120"
         style="stop-color:#dfdfdf;stop-opacity:1"
         offset="1" />
    </linearGradient>
    <linearGradient
       x1="48"
       y1="18.534204"
       x2="78"
       y2="18.534204"
       id="linearGradient5618"
       xlink:href="#linearGradient2296"
       gradientUnits="userSpaceOnUse"
       gradientTransform="matrix(0.969324,0.303467,-0.313034,0.999884,-26.51354,-28.87764)" />
    <linearGradient
       x1="48"
       y1="18.534204"
       x2="78"
       y2="18.534204"
       id="linearGradient5648"
       xlink:href="#linearGradient2296"
       gradientUnits="userSpaceOnUse"
       gradientTransform="matrix(0.969324,0.303467,-0.313034,0.999884,-26.51354,-28.87764)" />
    <linearGradient
       x1="54.287079"
       y1="9.1136208"
       x2="68.843483"
       y2="38.118332"
       id="linearGradient5514"
       xlink:href="#linearGradient2296"
       gradientUnits="userSpaceOnUse"
       gradientTransform="matrix(0.4353419,-0.00634468,0.00579602,0.4380543,-18.844211,1.7596589)" />
    <linearGradient
       x1="34.561821"
       y1="17.249048"
       x2="50.808903"
       y2="44.769524"
       id="linearGradient5519"
       xlink:href="#linearGradient3116"
       gradientUnits="userSpaceOnUse"
       gradientTransform="matrix(0.3340211,0,0,0.4831366,-4.0697863,1.4490224)" />
    <radialGradient
       cx="1.8372425"
       cy="7.3192039"
       r="5.9880404"
       fx="1.8372425"
       fy="7.3192039"
       id="radialGradient5521"
       xlink:href="#linearGradient2296"
       gradientUnits="userSpaceOnUse"
       gradientTransform="matrix(1,0,0,1.4178085,1.0015409,-4.2189038)" />
    <linearGradient
       x1="35.321308"
       y1="24.984463"
       x2="51.861248"
       y2="41.370472"
       id="linearGradient5524"
       xlink:href="#linearGradient5460"
       gradientUnits="userSpaceOnUse"
       gradientTransform="matrix(0.3746583,0,0,0.515781,-5.3785669,0.5368259)" />
    <linearGradient
       x1="54.287079"
       y1="9.1136208"
       x2="68.843483"
       y2="38.118332"
       id="linearGradient5531"
       xlink:href="#linearGradient2296"
       gradientUnits="userSpaceOnUse"
       gradientTransform="matrix(0.4353423,-0.00634152,0.00579602,0.4378357,-10.844242,-1.2387241)" />
    <linearGradient
       x1="34.561821"
       y1="17.249048"
       x2="50.808903"
       y2="44.769524"
       id="linearGradient5535"
       xlink:href="#linearGradient3116"
       gradientUnits="userSpaceOnUse"
       gradientTransform="matrix(0.3340282,0,0,0.4831436,3.9253336,-1.566496)" />
    <radialGradient
       cx="9.5666256"
       cy="3.930162"
       r="5.9880404"
       fx="9.5666256"
       fy="3.930162"
       id="radialGradient5537"
       xlink:href="#linearGradient2296"
       gradientUnits="userSpaceOnUse"
       gradientTransform="matrix(1,0,0,1.4178084,1.0015409,-2.9590641)" />
    <linearGradient
       x1="35.321308"
       y1="24.984463"
       x2="51.861248"
       y2="41.370472"
       id="linearGradient5540"
       xlink:href="#linearGradient5460"
       gradientUnits="userSpaceOnUse"
       gradientTransform="matrix(0.3746585,0,0,0.5157814,2.6165341,-2.4781135)" />
    <radialGradient
       cx="4.9929786"
       cy="43.5"
       r="2.5"
       fx="4.9929786"
       fy="43.5"
       id="radialGradient5912"
       xlink:href="#linearGradient3688"
       gradientUnits="userSpaceOnUse"
       gradientTransform="matrix(1.2022703,0,0,1.3,12.992878,-84.799998)" />
    <radialGradient
       cx="4.9929786"
       cy="43.5"
       r="2.5"
       fx="4.9929786"
       fy="43.5"
       id="radialGradient5914"
       xlink:href="#linearGradient3688"
       gradientUnits="userSpaceOnUse"
       gradientTransform="matrix(1.2022703,0,0,1.3,-10.007122,-84.799999)" />
    <linearGradient
       x1="25.058096"
       y1="47.027729"
       x2="25.058096"
       y2="39.999443"
       id="linearGradient5916"
       xlink:href="#linearGradient3702"
       gradientUnits="userSpaceOnUse"
       gradientTransform="matrix(0.5357143,0,0,0.9285714,-1.357143,-12.142855)" />
    <radialGradient
       cx="4.9929786"
       cy="43.5"
       r="2.5"
       fx="4.9929786"
       fy="43.5"
       id="radialGradient5926"
       xlink:href="#linearGradient3688"
       gradientUnits="userSpaceOnUse"
       gradientTransform="matrix(1.2022703,0,0,1.3,12.992878,-84.799998)" />
    <radialGradient
       cx="4.9929786"
       cy="43.5"
       r="2.5"
       fx="4.9929786"
       fy="43.5"
       id="radialGradient5928"
       xlink:href="#linearGradient3688"
       gradientUnits="userSpaceOnUse"
       gradientTransform="matrix(1.2022703,0,0,1.3,-10.007122,-84.799999)" />
    <linearGradient
       x1="25.058096"
       y1="47.027729"
       x2="25.058096"
       y2="39.999443"
       id="linearGradient5930"
       xlink:href="#linearGradient3702"
       gradientUnits="userSpaceOnUse"
       gradientTransform="matrix(0.5357143,0,0,0.9285714,-1.357143,-12.142855)" />
  </defs>
  <g
     id="g5932">
    <g
       transform="matrix(0.7619048,0,0,0.4615383,-0.7619045,9.4615426)"
       id="g6552"
       style="display:inline;enable-background:new">
      <rect
         width="2.9999998"
         height="6.5"
         x="19"
         y="-31.5"
         transform="scale(1,-1)"
         id="rect6464"
         style="opacity:0.4;fill:url(#radialGradient5912);fill-opacity:1;stroke:none;display:inline;enable-background:new" />
      <rect
         width="2.9999998"
         height="6.5"
         x="-4"
         y="-31.5"
         transform="scale(-1,-1)"
         id="rect7457"
         style="opacity:0.4;fill:url(#radialGradient5914);fill-opacity:1;stroke:none" />
      <rect
         width="15"
         height="6.5000005"
         x="4"
         y="25.000002"
         id="rect7459"
         style="opacity:0.4;fill:url(#linearGradient5916);fill-opacity:1;stroke:none" />
    </g>
    <g
       transform="matrix(0.7619048,0,0,0.4615383,7.2380946,6.4615425)"
       id="g5918"
       style="display:inline;enable-background:new">
      <rect
         width="2.9999998"
         height="6.5"
         x="19"
         y="-31.5"
         transform="scale(1,-1)"
         id="rect5920"
         style="opacity:0.4;fill:url(#radialGradient5926);fill-opacity:1;stroke:none;display:inline;enable-background:new" />
      <rect
         width="2.9999998"
         height="6.5"
         x="-4"
         y="-31.5"
         transform="scale(-1,-1)"
         id="rect5922"
         style="opacity:0.4;fill:url(#radialGradient5928);fill-opacity:1;stroke:none" />
      <rect
         width="15"
         height="6.5000005"
         x="4"
         y="25.000002"
         id="rect5924"
         style="opacity:0.4;fill:url(#linearGradient5930);fill-opacity:1;stroke:none" />
    </g>
    <g
       transform="matrix(0.3630062,-0.09739315,0.09578738,0.3690904,4.5107581,6.5646934)"
       id="g7713"
       style="stroke-width:2.88911819;stroke-miterlimit:4;stroke-dasharray:none;display:inline;enable-background:new">
      <path
         d="m 11.249051,13.68551 c 11.018461,7.81637 20.073808,0.268022 29.079725,9.104008 L 45.504535,4.7780871 44.31062,2.2533867 19.506897,-5.5996203 16.789787,-4.2944189 11.249051,13.68551 z"
         id="path7715"
         style="opacity:0.51648356;fill:url(#linearGradient5648);fill-opacity:1;fill-rule:evenodd;stroke:none" />
    </g>
    <rect
       width="12.975554"
       height="17.979935"
       rx="1.2713063"
       ry="1.3028855"
       x="9.5284805"
       y="1.4799554"
       transform="matrix(0.9999982,0.00189005,-0.0015676,0.9999988,0,0)"
       id="rect7717"
       style="fill:url(#linearGradient5540);fill-opacity:1;fill-rule:nonzero;stroke:#888a85;stroke-width:1;stroke-linecap:round;stroke-linejoin:miter;stroke-miterlimit:4;stroke-opacity:1;stroke-dasharray:none;stroke-dashoffset:0;display:inline;enable-background:new" />
    <rect
       width="10.975996"
       height="15.979704"
       rx="0.21896262"
       ry="0.2277939"
       x="10.528176"
       y="2.4794152"
       transform="matrix(0.9999982,0.00191964,-0.00154205,0.9999988,0,0)"
       id="rect7719"
       style="fill:url(#linearGradient5535);fill-opacity:1;fill-rule:nonzero;stroke:url(#radialGradient5537);stroke-width:1.00008523;stroke-linecap:round;stroke-linejoin:miter;stroke-miterlimit:4;stroke-opacity:1;stroke-dasharray:none;stroke-dashoffset:0;display:inline;enable-background:new" />
    <path
       d="m 11.975579,2.9999999 c -0.697268,0.7714549 -0.979538,0.9860752 -0.975538,1.4116682 0.0039,0.4137215 0.47248,0.7658769 0.871738,0.4978005 0.04599,0.1852782 0.05888,0.3929512 -0.157231,0.5558299 0.01768,-3.626e-4 0.571321,0 0.571321,0 -0.196149,-0.166976 -0.20743,-0.381971 -0.15205,-0.5894617 0.447509,0.3054579 0.871088,-0.044823 0.866138,-0.5263966 -0.0051,-0.5049435 -0.268089,-0.6605927 -1.024378,-1.3494403 z"
       id="path7541"
       style="fill:black;fill-opacity:1;fill-rule:evenodd;stroke:none;display:inline;enable-background:new" />
    <path
       d="m 10.066134,10.601682 c 5.530869,1.661248 7.081552,-2.6484718 11.928463,-0.31924 l 0.0053,-7.4448956 C 22.004355,2.4163753 21.803436,2.1359511 21.178635,2.1438823 L 10.933841,2.0000033 c -0.58816,-0.0015 -0.9554684,0.4974763 -0.932853,0.8735028 l 0.06515,7.7281759 z"
       id="path7721"
       style="opacity:0.51648356;fill:url(#linearGradient5531);fill-opacity:1;fill-rule:evenodd;stroke:none;display:inline;enable-background:new" />
    <path
       d="m 15.90233,5.9999999 c -2.789057,2.6337112 -3.918124,3.3664198 -3.902163,4.8193761 0.0155,1.412428 1.889945,2.614675 3.48697,1.699477 0.183947,0.632522 0.235516,1.341517 -0.628891,1.897569 0.07073,-0.0012 2.285214,0 2.285214,0 -0.784579,-0.570042 -0.829672,-1.304027 -0.608152,-2.012392 1.790007,1.042822 3.484328,-0.153024 3.46452,-1.797091 C 19.979595,8.8830764 18.927474,8.3516948 15.90233,5.9999999 z"
       id="path7545"
       style="fill:black;fill-opacity:1;fill-rule:evenodd;stroke:none" />
    <path
       d="m 19.975595,18 c -0.697274,-0.771265 -0.979532,-0.985831 -0.975554,-1.411318 0.0039,-0.413621 0.472491,-0.765689 0.871752,-0.497681 0.04599,-0.185231 0.05887,-0.392852 -0.157231,-0.555689 0.01768,3.62e-4 0.571302,0 0.571302,0 -0.19614,0.166932 -0.20741,0.381876 -0.15204,0.589314 0.447512,-0.305381 0.871092,0.04481 0.866133,0.526265 -0.0051,0.50482 -0.268092,0.660431 -1.024362,1.349109 z"
       id="path7547"
       style="fill:black;fill-opacity:1;fill-rule:evenodd;stroke:none;display:inline;enable-background:new" />
    <g
       transform="matrix(0.3630917,-0.09734184,0.09580994,0.3688959,-3.4877194,9.571517)"
       id="g7563"
       style="stroke-width:2.88911819;stroke-miterlimit:4;stroke-dasharray:none">
      <path
         d="m 11.249051,13.68551 c 11.018461,7.81637 20.073808,0.268022 29.079725,9.104008 L 45.504535,4.7780871 44.31062,2.2533867 19.506897,-5.5996203 16.789787,-4.2944189 11.249051,13.68551 z"
         id="path7565"
         style="opacity:0.51648356;fill:url(#linearGradient5618);fill-opacity:1;fill-rule:evenodd;stroke:none" />
    </g>
    <rect
       width="12.975546"
       height="17.979927"
       rx="1.2713053"
       ry="1.3028848"
       x="1.5333802"
       y="4.4948916"
       transform="matrix(0.9999982,0.00189005,-0.0015676,0.9999988,0,0)"
       id="rect7567"
       style="fill:url(#linearGradient5524);fill-opacity:1;fill-rule:nonzero;stroke:#888a85;stroke-width:1.00037313;stroke-linecap:round;stroke-linejoin:miter;stroke-miterlimit:4;stroke-opacity:1;stroke-dasharray:none;stroke-dashoffset:0" />
    <rect
       width="10.975771"
       height="15.979479"
       rx="0.21895812"
       ry="0.2277907"
       x="2.5329232"
       y="5.4948797"
       transform="matrix(0.9999982,0.00191966,-0.00154204,0.9999988,0,0)"
       id="rect7569"
       style="fill:url(#linearGradient5519);fill-opacity:1;fill-rule:nonzero;stroke:url(#radialGradient5521);stroke-width:1.00031006;stroke-linecap:round;stroke-linejoin:miter;stroke-miterlimit:4;stroke-opacity:1;stroke-dasharray:none;stroke-dashoffset:0" />
    <path
       d="M 7.9540108,10.845488 C 9.6736216,8.916215 12.02161,10.711112 11.999849,12.547601 11.979963,14.226477 10.845347,15.025734 7.9914964,18 5.0245669,15.209247 3.9780529,14.564149 4.0003478,12.572219 4.0228792,10.510261 6.0434513,8.9712523 7.9540108,10.845488 z"
       id="path7571"
       style="fill:#c00;fill-opacity:1;fill-rule:evenodd;stroke:none" />
    <path
       d="M 3.9884938,6.2113709 C 4.4183856,5.7290529 5.0053855,6.1777779 4.9999627,6.636902 4.9949868,7.0566179 4.7113371,7.2564319 3.9978668,7.9999999 3.2561452,7.3023119 2.9945217,7.1410359 3.0000867,6.6430529 3.0057227,6.127565 3.5108733,5.742814 3.9884938,6.2113709 z"
       id="path7697"
       style="fill:#c00;fill-opacity:1;fill-rule:evenodd;stroke:none;display:inline;enable-background:new" />
    <path
       d="m 2.0661451,13.605977 c 5.5308661,1.662078 7.0815456,-2.649794 11.9284509,-0.319399 l 0.0053,-7.4486134 C 14.004356,5.4165831 13.803435,5.136019 13.178635,5.1439542 L 2.9338448,5.0000033 C 2.3456903,4.9985059 1.9783744,5.4977281 2.0009877,5.8739422 l 0.065157,7.7320348 z"
       id="path7575"
       style="opacity:0.51648356;fill:url(#linearGradient5514);fill-opacity:1;fill-rule:evenodd;stroke:none" />
    <path
       d="m 11.988493,20.788629 c 0.429893,0.482318 1.016893,0.03359 1.01147,-0.425531 -0.005,-0.419716 -0.288626,-0.61953 -1.002096,-1.363098 -0.741722,0.697688 -1.003345,0.858965 -0.99778,1.356947 0.0056,0.515488 0.510787,0.900239 0.988406,0.431682 z"
       id="path7577"
       style="fill:#c00;fill-opacity:1;fill-rule:evenodd;stroke:none;display:inline;enable-background:new" />
  </g>
</svg>

<?xml version="1.0" encoding="UTF-8" standalone="no"?>
<!-- Created with Inkscape (http://www.inkscape.org/) -->
<svg id="svg11300" xmlns="http://www.w3.org/2000/svg" height="24" width="24" version="1.0" xmlns:xlink="http://www.w3.org/1999/xlink">
 <defs id="defs3">
  <linearGradient id="linearGradient3702">
   <stop id="stop3704" style="stop-opacity:0" offset="0"/>
   <stop id="stop3710" offset=".5"/>
   <stop id="stop3706" style="stop-opacity:0" offset="1"/>
  </linearGradient>
  <linearGradient id="linearGradient3688">
   <stop id="stop3690" offset="0"/>
   <stop id="stop3692" style="stop-opacity:0" offset="1"/>
  </linearGradient>
  <linearGradient id="linearGradient5460">
   <stop id="stop5462" style="stop-color:#e5e5e5" offset="0"/>
   <stop id="stop5464" style="stop-color:#c8c8c8" offset="1"/>
  </linearGradient>
  <linearGradient id="linearGradient2296">
   <stop id="stop2298" style="stop-color:#fff" offset="0"/>
   <stop id="stop2300" style="stop-color:#fff;stop-opacity:0" offset="1"/>
  </linearGradient>
  <linearGradient id="linearGradient3116">
   <stop id="stop3118" style="stop-color:#e5e5e5" offset="0"/>
   <stop id="stop3120" style="stop-color:#dfdfdf" offset="1"/>
  </linearGradient>
  <linearGradient id="linearGradient5618" y2="18.534" xlink:href="#linearGradient2296" gradientUnits="userSpaceOnUse" x2="78" gradientTransform="matrix(.96932 .30347 -.31303 .99988 -26.514 -28.878)" y1="18.534" x1="48"/>
  <linearGradient id="linearGradient5514" y2="38.118" xlink:href="#linearGradient2296" gradientUnits="userSpaceOnUse" x2="68.843" gradientTransform="matrix(.43534 -.0063447 .0057960 .43805 -18.844 1.7597)" y1="9.1136" x1="54.287"/>
  <linearGradient id="linearGradient5519" y2="44.77" xlink:href="#linearGradient3116" gradientUnits="userSpaceOnUse" x2="50.809" gradientTransform="matrix(.33402 0 0 .48314 -4.0698 1.449)" y1="17.249" x1="34.562"/>
  <radialGradient id="radialGradient5521" xlink:href="#linearGradient2296" gradientUnits="userSpaceOnUse" cy="7.3192" cx="1.8372" gradientTransform="matrix(1 0 0 1.4178 1.0015 -4.2189)" r="5.988"/>
  <linearGradient id="linearGradient5524" y2="41.37" xlink:href="#linearGradient5460" gradientUnits="userSpaceOnUse" x2="51.861" gradientTransform="matrix(.37466 0 0 .51578 -5.3786 .53683)" y1="24.984" x1="35.321"/>
  <linearGradient id="linearGradient5531" y2="38.118" xlink:href="#linearGradient2296" gradientUnits="userSpaceOnUse" x2="68.843" gradientTransform="matrix(.43534 -.0063415 .0057960 .43784 -10.844 -1.2387)" y1="9.1136" x1="54.287"/>
  <linearGradient id="linearGradient5535" y2="44.77" xlink:href="#linearGradient3116" gradientUnits="userSpaceOnUse" x2="50.809" gradientTransform="matrix(.33403 0 0 .48314 3.9253 -1.5665)" y1="17.249" x1="34.562"/>
  <radialGradient id="radialGradient5537" xlink:href="#linearGradient2296" gradientUnits="userSpaceOnUse" cy="3.9302" cx="9.5666" gradientTransform="matrix(1 0 0 1.4178 1.0015 -2.9591)" r="5.988"/>
  <linearGradient id="linearGradient5540" y2="41.37" xlink:href="#linearGradient5460" gradientUnits="userSpaceOnUse" x2="51.861" gradientTransform="matrix(.37466 0 0 .51578 2.6165 -2.4781)" y1="24.984" x1="35.321"/>
  <radialGradient id="radialGradient5912" xlink:href="#linearGradient3688" gradientUnits="userSpaceOnUse" cy="43.5" cx="4.993" gradientTransform="matrix(1.2023 0 0 1.3 12.993 -84.8)" r="2.5"/>
  <radialGradient id="radialGradient5914" xlink:href="#linearGradient3688" gradientUnits="userSpaceOnUse" cy="43.5" cx="4.993" gradientTransform="matrix(1.2023 0 0 1.3 -10.007 -84.8)" r="2.5"/>
  <linearGradient id="linearGradient5916" y2="39.999" xlink:href="#linearGradient3702" gradientUnits="userSpaceOnUse" x2="25.058" gradientTransform="matrix(.53571 0 0 .92857 -1.3571 -12.143)" y1="47.028" x1="25.058"/>
 </defs>
 <g id="g5932">
  <g id="g6552" style="enable-background:new" transform="matrix(.76190 0 0 .46154 -.76190 9.4615)">
   <rect id="rect6464" style="opacity:.4;enable-background:new;fill:url(#radialGradient5912)" transform="scale(1,-1)" height="6.5" width="3" y="-31.5" x="19"/>
   <rect id="rect7457" style="opacity:.4;fill:url(#radialGradient5914)" transform="scale(-1)" height="6.5" width="3" y="-31.5" x="-4"/>
   <rect id="rect7459" style="opacity:.4;fill:url(#linearGradient5916)" height="6.5" width="15" y="25" x="4"/>
  </g>
  <g id="g5918" style="enable-background:new" transform="matrix(.76190 0 0 .46154 7.2381 6.4615)">
   <rect id="rect5920" style="opacity:.4;enable-background:new;fill:url(#radialGradient5912)" transform="scale(1,-1)" height="6.5" width="3" y="-31.5" x="19"/>
   <rect id="rect5922" style="opacity:.4;fill:url(#radialGradient5914)" transform="scale(-1)" height="6.5" width="3" y="-31.5" x="-4"/>
   <rect id="rect5924" style="opacity:.4;fill:url(#linearGradient5916)" height="6.5" width="15" y="25" x="4"/>
  </g>
  <g id="g7713" style="stroke-width:2.8891;enable-background:new" transform="matrix(.36301 -.097393 .095787 .36909 4.5108 6.5647)">
   <path id="path7715" style="opacity:.51648;fill-rule:evenodd;fill:url(#linearGradient5618)" d="m11.249 13.686c11.018 7.8164 20.074 0.26802 29.08 9.104l5.176-18.012-1.194-2.5246-24.804-7.853-2.717 1.3052-5.541 17.98z"/>
  </g>
  <rect id="rect7717" style="stroke:#888a85;stroke-linecap:round;enable-background:new;fill:url(#linearGradient5540)" transform="matrix(1 0.00189 -.0015676 1 0 0)" rx="1.2713" ry="1.3029" height="17.98" width="12.976" y="1.48" x="9.5285"/>
  <rect id="rect7719" style="stroke-width:1.0001;stroke:url(#radialGradient5537);stroke-linecap:round;enable-background:new;fill:url(#linearGradient5535)" transform="matrix(1 .0019196 -.0015420 1 0 0)" rx=".21896" ry=".22779" height="15.98" width="10.976" y="2.4794" x="10.528"/>
  <path id="path7541" style="enable-background:new;fill-rule:evenodd" d="m11.976 3c-0.69727 0.77145-0.97954 0.98608-0.97554 1.4117 0.0039 0.41372 0.47248 0.76588 0.87174 0.4978 0.04599 0.18528 0.05888 0.39295-0.15723 0.55583 0.01768-0.0003626 0.57132 0 0.57132 0-0.19615-0.16698-0.20743-0.38197-0.15205-0.58946 0.44751 0.30546 0.87109-0.044823 0.86614-0.5264-0.0051-0.50494-0.26809-0.66059-1.0244-1.3494z"/>
  <path id="path7721" style="opacity:.51648;fill-rule:evenodd;enable-background:new;fill:url(#linearGradient5531)" d="m10.066 10.602c5.5309 1.6612 7.0816-2.6485 11.928-0.31924l0.0053-7.4449c0.005-0.4217-0.196-0.7021-0.82-0.6942l-10.245-0.1439c-0.58816-0.0015-0.95547 0.49748-0.93285 0.8735l0.06515 7.7282z"/>
  <path id="path7545" style="fill-rule:evenodd" d="m15.902 6c-2.7891 2.6337-3.9181 3.3664-3.9022 4.8194 0.0155 1.4124 1.8899 2.6147 3.487 1.6995 0.18395 0.63252 0.23552 1.3415-0.62889 1.8976 0.07073-0.0012 2.2852 0 2.2852 0-0.78458-0.57004-0.82967-1.304-0.60815-2.0124 1.79 1.0428 3.4843-0.15302 3.4645-1.7971-0.019-1.7239-1.072-2.2553-4.097-4.607z"/>
  <path id="path7547" style="enable-background:new;fill-rule:evenodd" d="m19.976 18c-0.69727-0.77126-0.97953-0.98583-0.97555-1.4113 0.0039-0.41362 0.47249-0.76569 0.87175-0.49768 0.04599-0.18523 0.05887-0.39285-0.15723-0.55569 0.01768 0.000362 0.5713 0 0.5713 0-0.19614 0.16693-0.20741 0.38188-0.15204 0.58931 0.44751-0.30538 0.87109 0.04481 0.86613 0.52626-0.0051 0.50482-0.26809 0.66043-1.0244 1.3491z"/>
  <g id="g7563" style="stroke-width:2.8891" transform="matrix(.36309 -.097342 .095810 .36890 -3.4877 9.5715)">
   <path id="path7565" style="opacity:.51648;fill:url(#linearGradient5618);fill-rule:evenodd" d="m11.249 13.686c11.018 7.8164 20.074 0.26802 29.08 9.104l5.176-18.012-1.194-2.5246-24.804-7.853-2.717 1.3052-5.541 17.98z"/>
  </g>
  <rect id="rect7567" style="stroke:#888a85;stroke-linecap:round;stroke-width:1.0004;fill:url(#linearGradient5524)" transform="matrix(1 0.00189 -.0015676 1 0 0)" rx="1.2713" ry="1.3029" height="17.98" width="12.976" y="4.4949" x="1.5334"/>
  <rect id="rect7569" style="stroke:url(#radialGradient5521);stroke-linecap:round;stroke-width:1.0003;fill:url(#linearGradient5519)" transform="matrix(1 .0019197 -.0015420 1 0 0)" rx=".21896" ry=".22779" height="15.979" width="10.976" y="5.4949" x="2.5329"/>
  <path id="path7571" style="fill:#c00;fill-rule:evenodd" d="m7.954 10.845c1.7196-1.9288 4.068-0.134 4.046 1.703-0.02 1.678-1.155 2.478-4.0085 5.452-2.9669-2.791-4.0134-3.436-3.9912-5.428 0.0226-2.062 2.0432-3.6007 3.9537-1.727z"/>
  <path id="path7697" style="enable-background:new;fill:#c00;fill-rule:evenodd" d="m3.9885 6.2114c0.4299-0.4823 1.0169-0.0336 1.0115 0.4255-0.005 0.4197-0.2887 0.6195-1.0021 1.3631-0.7418-0.6977-1.0034-0.859-0.9978-1.3569 0.0056-0.5155 0.5108-0.9003 0.9884-0.4317z"/>
  <path id="path7575" style="opacity:.51648;fill:url(#linearGradient5514);fill-rule:evenodd" d="m2.0661 13.606c5.5309 1.6621 7.0815-2.6498 11.928-0.3194l0.0053-7.4486c0.005-0.4218-0.196-0.7024-0.82-0.6944l-10.245-0.144c-0.5883-0.0015-0.9556 0.4977-0.933 0.8739l0.065157 7.732z"/>
  <path id="path7577" style="enable-background:new;fill:#c00;fill-rule:evenodd" d="m11.988 20.789c0.42989 0.48232 1.0169 0.03359 1.0115-0.42553-0.005-0.41972-0.28863-0.61953-1.0021-1.3631-0.74172 0.69769-1.0033 0.85896-0.99778 1.3569 0.0056 0.51549 0.51079 0.90024 0.98841 0.43168z"/>
 </g>
</svg>
